X: 35665
T: Sailor's Jacket, The
R: reel
M: 4/4
K: Dmixolydian
dfed A3B|(3Bcd ef g2fe|d2ed AGAB|cBcG EDD2:|
d2fd B/c/d fd|c2ec gcec|d2ed B/c/d fd|eaag edd2|
defg afge|cdef g2fg|a2ge fded|eaag edd2|

